svg/logo/threads_fill.svg

<?xml version="1.0" encoding="UTF-8"?>
<svg width="24px" height="24px" viewBox="0 0 24 24" version="1.1" xmlns="http://www.w3.org/2000/svg" xmlns:xlink="http://www.w3.org/1999/xlink">
    <title>threads_fill</title>
    <g id="Icon" stroke="none" stroke-width="1" fill="none" fill-rule="evenodd">
        <g id="Logo" transform="translate(-96.000000, -336.000000)">
            <g id="threads_fill" transform="translate(96.000000, 336.000000)">
                <path d="M24,0 L24,24 L0,24 L0,0 L24,0 Z M12.5935,23.2578 L12.5819,23.2595 L12.5109,23.295 L12.4919,23.2987 L12.4767,23.295 L12.4057,23.2595 C12.3958,23.2564 12.387,23.259 12.3821,23.2649 L12.378,23.2758 L12.3609,23.7031 L12.3659,23.7235 L12.3769,23.7357 L12.4805,23.8097 L12.4953,23.8136 L12.5071,23.8097 L12.6107,23.7357 L12.6233,23.7197 L12.6267,23.7031 L12.6096,23.2758 C12.6076,23.2657 12.601,23.2593 12.5935,23.2578 Z M12.8584,23.1453 L12.8445,23.1473 L12.6598,23.2397 L12.6499,23.2499 L12.6472,23.2611 L12.6651,23.6906 L12.6699,23.7034 L12.6784,23.7105 L12.8793,23.8032 C12.8914,23.8069 12.9022,23.803 12.9078,23.7952 L12.9118,23.7812 L12.8777,23.1665 C12.8753,23.1546 12.8674,23.147 12.8584,23.1453 Z M12.143,23.1473 C12.1332,23.1424 12.1222,23.1453 12.1156,23.1526 L12.1099,23.1665 L12.0758,23.7812 C12.0751,23.7927 12.0828,23.8019 12.0926,23.8046 L12.1083,23.8032 L12.3092,23.7105 L12.3186,23.7024 L12.3225,23.6906 L12.3404,23.2611 L12.3372,23.2485 L12.3278,23.2397 L12.143,23.1473 Z" id="MingCute" fill-rule="nonzero"></path>
                <path d="M5.08608,4.28066 C6.73621,2.5204 9.11748,1.5 12.0164,1.5 C16.8078,1.5 20.0334,4.28367 21.0487,8.15013 C21.2591,8.95139 20.7801,9.77151 19.9788,9.9819 C19.1776,10.1923 18.3575,9.71332 18.1471,8.91205 C17.4794,6.36937 15.4497,4.5 12.0164,4.5 C9.85274,4.5 8.29651,5.24248 7.27476,6.33241 C6.23865,7.43766 5.64136,9.01997 5.64136,10.875 L5.64136,13.125 C5.64136,14.98 6.23865,16.5623 7.27476,17.6676 C8.29651,18.7575 9.85274,19.5 12.0164,19.5 C13.5918,19.5 14.8114,19.1351 15.7297,18.5694 C16.6503,18.0024 17.1499,17.2855 17.2897,16.502 C17.463,15.5302 17.2464,14.9231 16.926,14.5009 C16.8899,14.4533 16.8511,14.4064 16.8099,14.3603 C16.66,14.8635 16.4552,15.3356 16.1873,15.7426 C14.6734,18.043 11.818,18.2034 9.98375,17.4713 C8.89259,17.0357 8.01175,15.8883 7.73732,14.6828 C7.58868,14.03 7.59592,13.2775 7.90492,12.5361 C8.21727,11.7867 8.78871,11.1669 9.56688,10.708 C10.3672,10.236 11.4944,10.0431 12.546,10.0144 C12.9471,10.0034 13.3689,10.0155 13.8002,10.0541 C13.7101,9.85359 13.6135,9.71084 13.5258,9.62925 C13.1421,9.27222 12.4661,8.99651 11.7803,9.00137 C11.1327,9.00597 10.6537,9.24793 10.3704,9.70125 C9.93132,10.4038 9.0059,10.6173 8.30339,10.1782 C7.60089,9.73918 7.38733,8.81376 7.82639,8.11125 C8.77354,6.59582 10.3327,6.01157 11.759,6.00145 C13.147,5.9916 14.5804,6.51269 15.5694,7.43293 C16.5235,8.3207 16.9424,9.68747 17.0823,10.9184 C17.9178,11.3211 18.7122,11.892 19.3158,12.6874 C20.1895,13.8386 20.5493,15.3121 20.2431,17.0288 C19.9234,18.821 18.7933,20.2058 17.303,21.1238 C15.8456,22.0215 14.0643,22.5 12.0164,22.5 C9.11748,22.5 6.73621,21.4796 5.08608,19.7193 C3.45031,17.9744 2.64136,15.6192 2.64136,13.125 L2.64136,10.875 C2.64136,8.38079 3.45031,6.0256 5.08608,4.28066 Z M14.0326,13.1029 C13.556,13.0294 13.0761,13.001 12.6278,13.0133 C11.7686,13.0367 11.2443,13.2015 11.0908,13.292 C10.7856,13.4721 10.7011,13.6254 10.674,13.6902 C10.6437,13.7631 10.6281,13.8661 10.6625,14.0169 C10.6987,14.1761 10.784,14.35 10.9008,14.4966 C10.9999,14.621 11.0773,14.6717 11.0952,14.6834 C11.1001,14.6866 11.1006,14.6869 11.0959,14.685 C12.0802,15.0779 13.2002,14.8244 13.6813,14.0933 C13.8175,13.8865 13.9463,13.54 14.0326,13.1029 Z" id="形状" fill="#09244B"></path>
            </g>
        </g>
    </g>
</svg>

<svg xmlns="http://www.w3.org/2000/svg" width="24" height="24"><g fill="none" fill-rule="evenodd"><path d="M24 0v24H0V0h24ZM12.594 23.258l-.012.002-.071.035-.02.004-.014-.004-.071-.036c-.01-.003-.019 0-.024.006l-.004.01-.017.428.005.02.01.013.104.074.015.004.012-.004.104-.074.012-.016.004-.017-.017-.427c-.002-.01-.009-.017-.016-.018Zm.264-.113-.014.002-.184.093-.01.01-.003.011.018.43.005.012.008.008.201.092c.012.004.023 0 .029-.008l.004-.014-.034-.614c-.003-.012-.01-.02-.02-.022Zm-.715.002a.023.023 0 0 0-.027.006l-.006.014-.034.614c0 .012.007.02.017.024l.015-.002.201-.093.01-.008.003-.011.018-.43-.003-.012-.01-.01-.184-.092Z"/><path fill="#09244B" d="M5.086 4.28c1.65-1.76 4.031-2.78 6.93-2.78 4.792 0 8.017 2.784 9.033 6.65a1.5 1.5 0 0 1-2.902.762C17.48 6.37 15.45 4.5 12.017 4.5c-2.164 0-3.72.742-4.742 1.832C6.239 7.438 5.64 9.02 5.64 10.875v2.25c0 1.855.598 3.437 1.634 4.543 1.022 1.09 2.578 1.832 4.741 1.832 1.576 0 2.795-.365 3.714-.93.92-.568 1.42-1.285 1.56-2.068.173-.972-.044-1.579-.364-2.001a2.268 2.268 0 0 0-.116-.14c-.15.502-.355.975-.623 1.382-1.514 2.3-4.369 2.46-6.203 1.728-1.091-.435-1.972-1.583-2.247-2.788a3.517 3.517 0 0 1 .168-2.147c.312-.75.884-1.37 1.662-1.828.8-.472 1.927-.665 2.979-.694a10.8 10.8 0 0 1 1.254.04c-.09-.2-.187-.343-.274-.425-.384-.357-1.06-.632-1.746-.628-.647.005-1.126.247-1.41.7a1.5 1.5 0 1 1-2.544-1.59c.948-1.515 2.507-2.1 3.933-2.11 1.388-.01 2.821.512 3.81 1.432.954.888 1.373 2.254 1.513 3.485.836.403 1.63.974 2.234 1.77.874 1.15 1.233 2.624.927 4.34-.32 1.793-1.45 3.178-2.94 4.096-1.457.898-3.239 1.376-5.287 1.376-2.899 0-5.28-1.02-6.93-2.78-1.636-1.746-2.445-4.1-2.445-6.595v-2.25c0-2.494.81-4.85 2.445-6.594Zm8.947 8.823a7.893 7.893 0 0 0-1.405-.09c-.86.024-1.384.188-1.537.279-.305.18-.39.333-.417.398a.526.526 0 0 0-.011.327c.036.16.121.333.238.48.099.124.176.175.194.186.005.004.006.004 0 .002.985.393 2.105.14 2.586-.592.137-.207.265-.553.352-.99Z"/></g></svg>
